X:335
T:Royalists March. RH.335
R:march
S:Rev.R.Harrison’s MS,c1815,Cumbria
N:1st bar of B music needs correcting. PJH.
O:England
A:Temple Sowerby,Cumbria
Z:vmp.Simon Wilson. Review PJH, 2008.
M:C|
L:1/8
Q:1/2=60
K:D
ab/c’/|d’3c’ e’d’c’b|a3g ffga|\
b3a gfed|cc/d/ e/d/c/B/ AABc|!
d/d’/c’/b/ a/g/f/e/ d/a/g/f/ e/d/c/d/|B4 Adfa|\
aBg>e eddc|d2d>d d2:|!
|:b/a/ g/f/e/d/|dcc2ze/f/ g/f/g/e/|\
edd2zd’/c’/ b/a/g/f/|b3a gfed|!
cc/d/ e/d/c/B/ Aabc’|d’3c’ e’d’c’b|\
a3g fad’f’|b3g fedc|d2d>d d2:|

